src/pos-icons/table-arrow-right.svg

<svg height="24" viewBox="0 0 24 24" width="24" xmlns="http://www.w3.org/2000/svg"><path d="m4 3h14c1.11 0 2 .9 2 2v7.08c-1.55-.26-3.08.1-4.32.92h-3.68v4h1.08c-.11.68-.11 1.35 0 2h-9.08c-1.1 0-2-.89-2-2v-12c0-1.1.9-2 2-2m0 4v4h6v-4zm8 0v4h6v-4zm-8 6v4h6v-4zm15.44 8v-2h-4v-2h4v-2l3 3z"/></svg>

<?xml version="1.0" encoding="UTF-8"?><!DOCTYPE svg PUBLIC "-//W3C//DTD SVG 1.1//EN" "http://www.w3.org/Graphics/SVG/1.1/DTD/svg11.dtd"><svg xmlns="http://www.w3.org/2000/svg" xmlns:xlink="http://www.w3.org/1999/xlink" version="1.1" id="mdi-table-arrow-right" width="24" height="24" viewBox="0 0 24 24"><path d="M4 3H18C19.11 3 20 3.9 20 5V12.08C18.45 11.82 16.92 12.18 15.68 13H12V17H13.08C12.97 17.68 12.97 18.35 13.08 19H4C2.9 19 2 18.11 2 17V5C2 3.9 2.9 3 4 3M4 7V11H10V7H4M12 7V11H18V7H12M4 13V17H10V13H4M19.44 21V19H15.44V17H19.44V15L22.44 18L19.44 21" /></svg>
